tn/border-right-outline.svg

<svg viewBox="0 0 15 15" fill="none" xmlns="http://www.w3.org/2000/svg" height="1em" width="1em">
  <path d="M1 1.5H2M7 1.5H8M10 1.5H11M7 4.5H8M10 7.5H11M7 7.5H8M7 10.5H8M10 13.5H11M7 13.5H8M4 13.5H5M1 13.5H2M1 10.5H2M1 7.5H2M4 7.5H5M1 4.5H2M4 1.5H5M13.5 1V14" stroke="black"/>
</svg>

<svg viewBox="0 0 15 15" fill="none" xmlns="http://www.w3.org/2000/svg" height="1em" width="1em">
  <path d="M1 1.5h1m5 0h1m2 0h1m-4 3h1m2 3h1m-4 0h1m-1 3h1m2 3h1m-4 0h1m-4 0h1m-4 0h1m-1-3h1m-1-3h1m2 0h1m-4-3h1m2-3h1m8.5-.5v13" stroke="#000"/>
</svg>
